X: 1
T: Flatworld
C: Andy Cutting
R: Waltz
M: 3/4
L: 1/8
K: G
r: 32
 B AB|: "Em" GB FB EB | "C" C2 EF GE | "Am" c2 cB AG | "B"F3 BAB | "Em" GB FB EB | "C" C2 cB AG | "Am" FE FA "B" GF |[1 "Em" E3 BAB :|[2 "Em" E3 EED ] |
|: "Em" EF GE ed | "Am" c2 cB AG | "D" FG AD dc | "G" B2 BA GF | "C" EF GC cB | "Am" A2 AG FE |[1 "B7" F2 FA GA | F4 GF :|[2 "B7" F2 FA GF | "Em" E3 B AB |]
